X:1
T:[ID 2-32]
T:[ID 2-32]
T:Bezeichnung standardisiert: Menuett Menuet ex C.#
T:Urheber unbekannt Datum in der hier transkribierten schriftlichen Quelle: 1767
C:Urheber unbekannt
C:Datum in der hier transkribierten schriftlichen Quelle: 1767
L:1/8
M:3/4
K:C
V:1 treble 
V:1
 ge c2 c2 | ag g4 | fedagf | Te2 de c2 | dB G2 G2 | ed d4 | eg f2 e2 |{f} e2 d4 :: gecGA_B | %9
 AGFE F2 | a^fdABc | BAG"^\201*"F G2 | ge c2 c2 | ag g4 | dfedcB | c6 :| %16

